X:1
T:Title
%%score ( 1 2 ) ( 3 4 )
L:1/8
Q:1/4=115
M:2/4
K:F
V:1 treble nm="Choir Aahs, Unnamed-000"
V:2 treble 
V:3 bass nm="Choir Aahs, Simeon"
V:4 bass 
V:1
 [Cc]2 [Cc]>[CB] | [CA]3 [DB] | [CA]2 [B,G]2 | [A,F]3 [A,F] | [B,B]3 [FA] | [Fd]3 [Fc] | %6
w: By~Samuel~Stanley~(1767\-1822) * *||||||
 [CE]2 [CF]2 | [EG]3 [EG] | [FA]2 [EG][CF] | z2 .A2 | [Fc]2 [Fd]2 | [Fc]3 [Gc] | c4 | %13
w: |||||||
 [Fc][EB] [FA][GB] | [FA]2 [EG]2 | [CF]4 |] %16
w: |||
V:2
 x4 | x4 | x4 | x4 | x4 | x4 | x4 | x4 | x4 | [DB]2 E-[EG] | x4 | x4 | FE F[Fd] | x4 | x4 | x4 |] %16
V:3
 [F,A,]2 [A,,F,]>[C,E,] | F,3 [B,,F,] | [C,F,]2 [C,E,]2 | [F,,F,]3 F, | [D,F,]3 [C,F,] | %5
 [B,,B,]3 [A,,C] | [G,,B,]2 [F,,A,]2 | [C,G,]3 [C,C] | z2 C2 | z2 C2 | [A,,C]2 [B,,B,]2 | %11
 [F,A,]3 [E,G,] | [F,A,][G,B,] [A,C]B, | C2 z2 | z2 .C2 | [F,,F,A,]4 |] %16
V:4
 x4 | x4 | x4 | x4 | x4 | x4 | x4 | x4 | [F,C]2 B,A, | [G,B,]2 C,B,, | x4 | x4 | x4 | %13
 A,G, [F,C][B,,D] | [C,C]2 C,-[C,B,] | x4 |] %16

